li/legal-gavel.svg

<svg role="img" focusable="false" aria-hidden="true" xmlns="http://www.w3.org/2000/svg" viewBox="0 0 14 14" height="1em" width="1em">
  <path d="M 12.835237,5.6725513 12.304919,5.1422312 c -0.21968,-0.21968 -0.575835,-0.21968 -0.79549,0 l -0.132586,0.1325901 -2.6516635,-2.65164 0.1325856,-0.13259 c 0.219679,-0.21968 0.219679,-0.57583 0,-0.79549 l -0.5303188,-0.53034 c -0.219679,-0.21968005 -0.5758343,-0.21968005 -0.7954899,0 l -2.9168117,2.91681 c -0.2196791,0.21968 -0.2196791,0.57584 0,0.79549 l 0.5303187,0.5303199 c 0.2196791,0.2196801 0.5758343,0.2196801 0.7954899,0 L 6.0735388,5.2747913 7.0016142,6.2028712 5.1022448,8.1022413 4.9696593,7.9696512 c -0.2928976,-0.29289 -0.7677634,-0.29289 -1.060661,0 L 1.2196937,10.659001 c -0.29289759,0.2929 -0.29289759,0.76777 0,1.06067 l 1.0606609,1.06066 c 0.2928976,0.29289 0.7677634,0.29289 1.060661,0 l 2.6893281,-2.68933 c 0.2928975,-0.2928997 0.2928975,-0.7677598 0,-1.0606598 l -0.1325856,-0.1325899 1.8993694,-1.89937 0.9280754,0.92808 -0.1325855,0.13258 c -0.219679,0.21968 -0.219679,0.5758399 0,0.79549 l 0.5303188,0.53032 c 0.219679,0.21968 0.5758342,0.21968 0.7954898,0 l 2.916811,-2.91681 c 0.219656,-0.21965 0.219656,-0.57581 0,-0.79549 z"/>
</svg>

<svg aria-hidden="true" xmlns="http://www.w3.org/2000/svg" viewBox="0 0 14 14" height="1em" width="1em">
  <path d="m12.835 5.673-.53-.53a.562.562 0 0 0-.796 0l-.132.132-2.652-2.652.133-.132a.562.562 0 0 0 0-.796l-.53-.53a.562.562 0 0 0-.796 0L4.615 4.082a.562.562 0 0 0 0 .795l.53.53c.22.22.576.22.796 0l.133-.132.928.928-1.9 1.9-.132-.133a.75.75 0 0 0-1.061 0l-2.69 2.689a.75.75 0 0 0 0 1.06L2.28 12.78a.75.75 0 0 0 1.061 0l2.69-2.689a.75.75 0 0 0 0-1.06l-.133-.133 1.9-1.9.927.928-.132.133a.562.562 0 0 0 0 .796l.53.53c.22.22.576.22.795 0l2.917-2.917a.563.563 0 0 0 0-.795z"/>
</svg>
